X:1
T:Caprice No. 06
T:Caprice No. 06
T:Op. 20
T:Luigi Legnani (1790 - 1877)
C:Luigi Legnani
%%score ( 1 2 )
L:1/8
Q:1/4=100
M:4/4
K:F
V:1 treble-8 nm="Classical Guitar" snm="Guit."
V:2 treble-8 
V:1
"^Maestoso"!p! z8 | [Ac]2 z2 [^G=B]2 [Ac]2 | [FA]2 z2 z2 !>![^G=B]2 | %3
 [Ac]2 !>![^G=B]2 [Ac]2 !>![GB]2 | [Ac]{/dc=B}cde fga_b | c'4 a4 | f4 (3z ae (3(gf)d | %7
 =B2 !>![_AB]2 [GB]2 [Fd]2 | [Ec]2 z2 z4 | z8 | [Ac]2 z2 [^G=B]2 [Ac]2 | [FA]2 z2 z2 !>![^G=B]2 | %12
 [Ac]2 !>![^G=B]2 [Ac]2 !>![GB]2 | [Ac]!<(!{/dc=B}cde f{/gfe}fg^g!<)! | %14
!f! a z [A^ca] z [Aca] z [Aca]g | [df]2 z2 z4 | g z [G=Bg] z [GBg] z [GBg]f | %17
 z [ce] z [=Bd] z [Ac] z !>![DAc] | z2 G/c/e/g/ f/(d/=B/)G/ z2 | z4 z e=Bc | !>!^c2 z2 df=Bd | %21
 =c2 z2 z e=Bc | !>!^c2 z2 df=Bd | =c2 z2 z !>!^cd=B | =c2 z2 z !>!^cd=B | %25
 z2 c/e/g/e/ (_b/g/)e/c/ (g/e/)c/G/ | e/c/G/E/ c/G/E/C/ z4 |!p! z8 | [Ac]2 z2 [^G=B]2 [Ac]2 | %29
 [FA]2 z2 z2 !>![^G=B]2 | [Ac]2 !>![^G=B]2 [Ac]2 !>![GB]2 | [Ac]{/dc=B}cde f{/gfe}fg^g | %32
 [A^ca]2 z2 z!<(! gfe!<)! |!f! z [Bd] z [Ac^f] z [Bdg] z [da] |"^III" [db]agf edc !>!=B | %35
 [FAc]2 z2"^III" [GBe]2 z2 |!p! [Acf]2 z2 [df]2 z2 | [ce]2 z2 [Bd]2 z2 | [Ac]2 z2 z2 Bf | %39
 z2 Af z2 Gf | F2 z2 z4 | [CFA]2 z2 [CFA]2 z2 | [CFA]4 z4 |] %43
V:2
 F,CF,C F,CF,C | F,CF,C F,CF,C | F,CF,C F,CF,C | F,CF,C F,CF,C | F,2 z2 z4 | c4 A4 | F4 z4 | %7
 z2 !>!D2 D2 D2 | C=B,DC _B,A,G,C | F,CF,C F,CF,C | F,CF,C F,CF,C | F,CF,C F,CF,C | F,CF,C F,CF,C | %13
 F,2 z2 z4 | z A, z ^C z E z2 | z DFE DC=B,A, | z G, z =B, z D z2 | C z ^G, z A, z ^F, z | %18
 G,C/E/ G2 z2 F/D/=B,/G,/ | C[EG][EG][EG] [EG][EG][EG][EG] | %20
 !courtesy!=C[FG][FG][FG] [FG][FG][FG][FG] | C[EG][EG][EG] [EG][EG][EG][EG] | %22
 !courtesy!=C[FG][FG][FG] [FG][FG][FG][FG] | C[EG][EG][EG] !>!C[FG][FG][FG] | %24
 C[EG][EG][EG] !>!C[FG][FG][FG] | CE/G/ z2 z4 | z4 G/E/C/G,/ E/C/G,/E,/ | F,CF,C F,CF,C | %28
 F,CF,C F,CF,C | F,CF,C F,CF,C | F,CF,C F,CF,C | F,2 z2 z4 | z A,^CE A,2 z2 | %33
 B, z A, z G, z ^F, z | G,2 z2 z2 z !>![_DF_A] | C2 z2 C2 z2 | F,FF,F F,FF,F | F,FF,F F,FF,F | %38
 F,FF,F F,D z2 | F,C z2 F,B, z2 | [F,A,]2 z2 z4 | F,2 z2 F,2 z2 | F,4 z4 |] %43

